lib/brands/icons/yelp.svg

<svg xmlns="http://www.w3.org/2000/svg" fill="none" aria-hidden="true" viewBox="0 0 48 48"><g id="yelp-Icon"><g id="Yelp"><path id="Path" fill="#F43939" d="M4 24C4 12.9543 12.9543 4 24 4C35.0457 4 44 12.9543 44 24C44 35.0457 35.0457 44 24 44C12.9543 44 4 35.0457 4 24Z"/><g id="Union"><path fill="white" d="M23.8554 12.17C23.9152 12.5185 24.4238 20.0405 24.4971 21.7298C24.567 23.1699 23.949 23.3617 23.7472 23.4237C23.543 23.488 22.9217 23.6797 22.1604 22.4448C22.1604 22.4448 17.0078 14.3375 16.886 14.0883C16.8116 13.8063 16.9029 13.4883 17.151 13.2301C17.9213 12.4351 22.0803 11.2701 23.1687 11.5396C23.5228 11.6287 23.7698 11.8543 23.8554 12.17Z"/><path fill="white" d="M28.7761 25.2494C33.0389 24.2164 33.2036 24.1623 33.3716 24.0517C33.6298 23.878 33.7595 23.5871 33.737 23.233C33.737 23.2293 33.7372 23.2255 33.7375 23.2216C33.738 23.2136 33.7385 23.2053 33.737 23.197C33.6276 22.1504 31.7939 19.428 30.8906 18.986C30.5703 18.8326 30.25 18.8427 29.9838 19.021C29.8192 19.128 29.6986 19.2905 27.416 22.412C27.416 22.412 26.3852 23.816 26.3728 23.8295C26.1011 24.16 26.0966 24.6336 26.3627 25.0396C26.6379 25.4603 27.1025 25.6655 27.5288 25.5471C27.5288 25.5471 27.5119 25.5775 27.5073 25.5832C27.7171 25.5043 28.0926 25.4118 28.7761 25.2494Z"/><path fill="white" d="M15.3191 23.5365C14.9131 24.1872 14.7416 26.2363 14.8826 27.5963C14.9322 28.0451 15.0135 28.4196 15.1318 28.6429C15.2942 28.9519 15.5671 29.1357 15.8784 29.147C16.0781 29.1571 16.2021 29.1233 19.9551 27.9166C19.9551 27.9166 21.6231 27.3843 21.6299 27.381C22.046 27.275 22.3256 26.8926 22.3527 26.4043C22.3798 25.9036 22.1216 25.4616 21.6952 25.3014C21.6952 25.3014 20.5191 24.8221 20.5168 24.8221C16.484 23.1587 16.3025 23.0933 16.0995 23.0911C15.7882 23.0786 15.5119 23.2354 15.3191 23.5365Z"/><path fill="white" d="M24.3403 35.9303C24.4057 35.7408 24.4136 35.6111 24.4249 31.6685C24.4249 31.6685 24.4339 29.9262 24.435 29.9093C24.4621 29.4818 24.1858 29.0928 23.7336 28.9191C23.2678 28.7398 22.766 28.8503 22.4841 29.201C22.4841 29.201 21.6608 30.1777 21.6586 30.1777C18.8336 33.4966 18.7152 33.6499 18.6463 33.8462C18.6047 33.9612 18.5877 34.0853 18.6012 34.2082C18.6182 34.3841 18.6982 34.5578 18.8302 34.7202C19.4854 35.4983 22.6272 36.6543 23.631 36.4828C23.9794 36.4197 24.2332 36.2234 24.3403 35.9303Z"/><path fill="white" d="M33.873 30.5397C33.7276 31.5512 31.6615 34.18 30.7142 34.5577C30.3861 34.6897 30.0703 34.6582 29.8222 34.463C29.6621 34.3378 29.4917 34.0818 27.2657 30.4663L26.6037 29.3882C26.3499 29.0026 26.3972 28.4917 26.7153 28.1048C27.0209 27.7282 27.4754 27.585 27.8735 27.7395C27.8949 27.7497 29.5402 28.2932 29.5402 28.2932C33.2911 29.5247 33.4117 29.5709 33.5708 29.6905C33.8132 29.8844 33.9237 30.1878 33.873 30.5397Z"/></g></g></g></svg>

<svg xmlns="http://www.w3.org/2000/svg" fill="none" aria-hidden="true" viewBox="0 0 48 48"><path fill="#F43939" d="M4 24C4 12.954 12.954 4 24 4s20 8.954 20 20-8.954 20-20 20S4 35.046 4 24Z"/><path fill="#fff" d="M23.855 12.17c.06.348.568 7.87.642 9.56.07 1.44-.549 1.632-.75 1.694-.204.064-.826.256-1.587-.98 0 0-5.153-8.106-5.274-8.356-.075-.282.016-.6.265-.858.77-.795 4.929-1.96 6.017-1.69.354.089.601.314.687.63Zm4.921 13.08c4.262-1.034 4.427-1.088 4.595-1.198.258-.174.388-.465.365-.819a.15.15 0 0 1 .001-.011.102.102 0 0 0 0-.025c-.11-1.047-1.944-3.769-2.847-4.211-.32-.153-.64-.143-.907.035-.164.107-.285.27-2.567 3.391 0 0-1.031 1.404-1.044 1.418-.271.33-.276.804-.01 1.21.275.42.74.626 1.166.507l-.021.036c.21-.079.585-.171 1.269-.334Zm-13.457-1.713c-.406.65-.578 2.7-.437 4.06.05.448.131.823.25 1.046.162.309.435.493.746.504.2.01.324-.024 4.077-1.23 0 0 1.668-.533 1.674-.536.416-.106.696-.488.723-.977.027-.5-.23-.942-.657-1.103 0 0-1.176-.479-1.179-.479-4.032-1.663-4.214-1.729-4.417-1.73-.311-.013-.588.143-.78.445ZM24.34 35.93c.065-.19.073-.319.084-4.261l.01-1.76c.028-.427-.249-.816-.7-.99-.467-.18-.969-.069-1.25.282 0 0-.824.977-.826.977-2.825 3.319-2.943 3.472-3.012 3.668a.807.807 0 0 0-.045.362c.017.176.097.35.229.512.655.778 3.797 1.934 4.8 1.763.349-.063.603-.26.71-.553Zm9.533-5.39c-.146 1.011-2.212 3.64-3.16 4.018-.327.132-.643.1-.891-.095-.16-.125-.33-.381-2.557-3.997l-.662-1.078c-.254-.385-.206-.896.112-1.283.305-.377.76-.52 1.158-.366.021.01 1.667.554 1.667.554 3.75 1.232 3.871 1.278 4.03 1.398.243.193.353.497.303.849Z"/></svg>
